public/assets/img/layout/home/arrow-desktop.svg

<svg fill="none" viewBox="0 0 183 259" xmlns="http://www.w3.org/2000/svg" xmlns:xlink="http://www.w3.org/1999/xlink"><linearGradient id="a" gradientUnits="userSpaceOnUse" x1="150.111" x2="11.9377" y1="47.3509" y2="87.0862"><stop offset="0" stop-color="#ffc069"/><stop offset="1" stop-color="#fb9100"/></linearGradient><clipPath id="b"><path d="m0 0h183v259h-183z"/></clipPath><g clip-path="url(#b)"><path clip-rule="evenodd" d="m107.316 45.9997 50.672-6.3843-19.807 47.076-12.353-16.2858c-19.619 20.4268-33.179 45.0844-40.8567 68.1544-1.7607 5.291-3.201 10.463-4.3332 15.451 15.0581-5.301 27.8159-5.685 38.3649-2.898 16.987 4.487 27.227 16.933 31.564 27.843 4.186 10.532 5.311 21.237 2.659 30.659-2.685 9.542-9.153 17.398-19.349 22.099-9.822 4.53-22.149 6.432-33.823 2.201-11.8339-4.289-22.1966-14.587-28.4619-32.861-2.9442-8.588-3.698-19.794-2.3753-32.363-4.4462 2.337-9.1232 5.124-14.0373 8.415-27.0193 18.1-40.9279 46.828-44.8658 75.802-3.95386 29.091 2.2385 57.738 14.5498 75.257l-7.2376 5.086c-13.88206-19.754-20.25695-50.785-16.07778-81.534 4.1951-30.867 19.11978-62.14 48.70818-81.96 7.2199-4.836 14.0571-8.7 20.5178-11.706 1.3354-7.194 3.276-14.689 5.8036-22.284 8.1637-24.531 22.6738-50.8056 43.8413-72.4922zm-28.6109 118.2203c-2.0848 13.874-1.5603 25.753 1.2551 33.965 5.5912 16.308 14.305 24.223 23.1078 27.413 8.962 3.248 18.832 1.899 27.105-1.917 7.9-3.643 12.571-9.472 14.538-16.463 2.001-7.111 1.295-15.788-2.365-24.995-3.509-8.829-11.834-18.921-25.603-22.558-9.486-2.506-22.0464-2.073-38.0379 4.555z" fill="url(#a)" fill-rule="evenodd"/><g fill="#fff"><path d="m62.4954 91c.7858 0 .5239 2.9781 3.2088 6.2628 3.1123 3.8072 6.4954 3.5252 6.2866 4.4232-.1528.657-3.6022-.695-7.1379 2.015-2.6854 2.058-2.1179 5.299-3.1215 5.299-.8077 0-.961-2.984-3.3179-5.299-2.1174-2.081-5.4135-1.599-5.4135-2.716 0-1.0346 3.2579 0 6.1993-3.1748 2.576-2.7808 2.2483-6.8102 3.2961-6.8102z"/><path d="m111.497 191c.538 0 .358 1.985 2.195 4.175 2.13 2.539 4.445 2.351 4.302 2.949-.105.438-2.465-.464-4.884 1.343-1.838 1.372-1.449 3.533-2.136 3.533-.553 0-.657-1.989-2.27-3.533-1.449-1.387-3.704-1.066-3.704-1.81 0-.69 2.229 0 4.242-2.117 1.762-1.854 1.538-4.54 2.255-4.54z"/><path d="m33.4983 223c.2895 0 .193 1.158 1.1822 2.436 1.1466 1.48 2.393 1.371 2.3161 1.72-.0563.255-1.3271-.271-2.6298.783-.9893.801-.7802 2.061-1.15 2.061-.2975 0-.354-1.16-1.2224-2.061-.7801-.809-1.9944-.621-1.9944-1.056 0-.402 1.2003 0 2.284-1.235.949-1.081.8283-2.648 1.2143-2.648z"/><path d="m164.498 67c.29 0 .193.9927 1.182 2.0876 1.147 1.2692 2.394 1.1752 2.317 1.4744-.057.219-1.328-.2318-2.63.6716-.99.6861-.78 1.7664-1.15 1.7664-.298 0-.354-.9945-1.223-1.7664-.78-.6935-1.994-.5329-1.994-.9051 0-.345 1.2 0 2.284-1.0584.949-.927.828-2.2701 1.214-2.2701z"/></g></g></svg>

<svg width="183" height="259" viewBox="0 0 183 259" fill="none" xmlns="http://www.w3.org/2000/svg">
<g clip-path="url(#clip0_5066_562)">
<path fill-rule="evenodd" clip-rule="evenodd" d="M107.316 45.9997L157.988 39.6154L138.181 86.6914L125.828 70.4056C106.209 90.8324 92.649 115.49 84.9713 138.56C83.2106 143.851 81.7703 149.023 80.6381 154.011C95.6962 148.71 108.454 148.326 119.003 151.113C135.99 155.6 146.23 168.046 150.567 178.956C154.753 189.488 155.878 200.193 153.226 209.615C150.541 219.157 144.073 227.013 133.877 231.714C124.055 236.244 111.728 238.146 100.054 233.915C88.2201 229.626 77.8574 219.328 71.5921 201.054C68.6479 192.466 67.8941 181.26 69.2168 168.691C64.7706 171.028 60.0936 173.815 55.1795 177.106C28.1602 195.206 14.2516 223.934 10.3137 252.908C6.35984 281.999 12.5522 310.646 24.8635 328.165L17.6259 333.251C3.74384 313.497 -2.63105 282.466 1.54812 251.717C5.74322 220.85 20.6679 189.577 50.2563 169.757C57.4762 164.921 64.3134 161.057 70.7741 158.051C72.1095 150.857 74.0501 143.362 76.5777 135.767C84.7414 111.236 99.2515 84.9613 120.419 63.2748L107.316 45.9997ZM78.7051 164.22C76.6203 178.094 77.1448 189.973 79.9602 198.185C85.5514 214.493 94.2652 222.408 103.068 225.598C112.03 228.846 121.9 227.497 130.173 223.681C138.073 220.038 142.744 214.209 144.711 207.218C146.712 200.107 146.006 191.43 142.346 182.223C138.837 173.394 130.512 163.302 116.743 159.665C107.257 157.159 94.6966 157.592 78.7051 164.22Z" fill="url(#paint0_linear_5066_562)"/>
<path d="M62.4954 91C63.2812 91 63.0193 93.9781 65.7042 97.2628C68.8165 101.07 72.1996 100.788 71.9908 101.686C71.838 102.343 68.3886 100.991 64.8529 103.701C62.1675 105.759 62.735 109 61.7314 109C60.9237 109 60.7704 106.016 58.4135 103.701C56.2961 101.62 53 102.102 53 100.985C53 99.9504 56.2579 100.985 59.1993 97.8102C61.7753 95.0294 61.4476 91 62.4954 91Z" fill="white"/>
<path d="M111.497 191C112.035 191 111.855 192.985 113.692 195.175C115.822 197.714 118.137 197.526 117.994 198.124C117.889 198.562 115.529 197.66 113.11 199.467C111.272 200.839 111.661 203 110.974 203C110.421 203 110.317 201.011 108.704 199.467C107.255 198.08 105 198.401 105 197.657C105 196.967 107.229 197.657 109.242 195.54C111.004 193.686 110.78 191 111.497 191Z" fill="white"/>
<path d="M33.4983 223C33.7878 223 33.6913 224.158 34.6805 225.436C35.8271 226.916 37.0735 226.807 36.9966 227.156C36.9403 227.411 35.6695 226.885 34.3668 227.939C33.3775 228.74 33.5866 230 33.2168 230C32.9193 230 32.8628 228.84 31.9944 227.939C31.2143 227.13 30 227.318 30 226.883C30 226.481 31.2003 226.883 32.284 225.648C33.233 224.567 33.1123 223 33.4983 223Z" fill="white"/>
<path d="M164.498 67C164.788 67 164.691 67.9927 165.68 69.0876C166.827 70.3568 168.074 70.2628 167.997 70.562C167.94 70.781 166.669 70.3302 165.367 71.2336C164.377 71.9197 164.587 73 164.217 73C163.919 73 163.863 72.0055 162.994 71.2336C162.214 70.5401 161 70.7007 161 70.3285C161 69.9835 162.2 70.3285 163.284 69.2701C164.233 68.3431 164.112 67 164.498 67Z" fill="white"/>
</g>
<defs>
<linearGradient id="paint0_linear_5066_562" x1="150.111" y1="47.3509" x2="11.9377" y2="87.0862" gradientUnits="userSpaceOnUse">
<stop stop-color="#FFC069"/>
<stop offset="1" stop-color="#FB9100"/>
</linearGradient>
<clipPath id="clip0_5066_562">
<rect width="183" height="259" fill="white"/>
</clipPath>
</defs>
</svg>
